assets/images/social/youtube.svg

<svg width="32" height="22" viewBox="0 0 32 22" xmlns="http://www.w3.org/2000/svg"><path d="M31.094 4.842s-.302-2.123-1.225-3.057C28.696.557 27.384.552 26.78.48 22.473.168 16.007.168 16.007.168h-.012S9.527.168 5.22.48c-.604.072-1.917.077-3.087 1.305C1.21 2.72.908 4.842.908 4.842S.6 7.334.6 9.827v2.336c0 2.493.31 4.986.31 4.986s.3 2.122 1.224 3.056c1.17 1.227 2.71 1.188 3.395 1.317 2.462.235 10.47.31 10.47.31s6.473-.01 10.78-.322c.605-.07 1.917-.077 3.09-1.304.922-.934 1.224-3.057 1.224-3.057s.307-2.494.307-4.987V9.827c0-2.493-.306-4.985-.306-4.985zM12.82 14.995l-.002-8.654 8.323 4.344-8.32 4.31z"/></svg>

<?xml version="1.0" encoding="UTF-8" standalone="no"?>
<svg width="32px" height="22px" viewBox="0 0 32 22" version="1.1" xmlns="http://www.w3.org/2000/svg" xmlns:xlink="http://www.w3.org/1999/xlink" xmlns:sketch="http://www.bohemiancoding.com/sketch/ns">
    <!-- Generator: Sketch 3.2.2 (9983) - http://www.bohemiancoding.com/sketch -->
    <title>Slice 1</title>
    <desc>Created with Sketch.</desc>
    <defs></defs>
    <g id="Page-1" stroke="none" stroke-width="1" fill="none" fill-rule="evenodd" sketch:type="MSPage">
        <g id="ThinkSay-05" sketch:type="MSLayerGroup" fill="#010101">
            <g id="Group" sketch:type="MSShapeGroup">
                <g id="Lozenge">
                    <path d="M31.094,4.842 C31.094,4.842 30.792,2.719 29.869,1.785 C28.697,0.557 27.385,0.552 26.781,0.48 C22.472,0.168 16.006,0.168 16.006,0.168 L15.994,0.168 C15.994,0.168 9.527,0.168 5.219,0.48 C4.616,0.552 3.303,0.557 2.133,1.785 C1.209,2.719 0.908,4.842 0.908,4.842 C0.908,4.842 0.6,7.334 0.6,9.827 L0.6,12.163 C0.6,14.656 0.909,17.149 0.909,17.149 C0.909,17.149 1.21,19.272 2.134,20.206 C3.304,21.433 4.844,21.394 5.529,21.523 C7.992,21.758 16,21.832 16,21.832 C16,21.832 22.473,21.822 26.781,21.511 C27.385,21.439 28.697,21.433 29.869,20.206 C30.792,19.272 31.094,17.149 31.094,17.149 C31.094,17.149 31.401,14.656 31.401,12.163 L31.401,9.827 C31.4,7.334 31.094,4.842 31.094,4.842 L31.094,4.842 Z M12.82,14.995 L12.818,6.341 L21.141,10.684 L12.82,14.995 L12.82,14.995 Z" id="Shape"></path>
                </g>
            </g>
        </g>
    </g>
</svg>
